build/svg/cmd/sc_removefiltersort.svg

<?xml version="1.0" encoding="UTF-8" standalone="no"?>
<svg
   xmlns:dc="http://purl.org/dc/elements/1.1/"
   xmlns:cc="http://creativecommons.org/ns#"
   xmlns:rdf="http://www.w3.org/1999/02/22-rdf-syntax-ns#"
   xmlns:svg="http://www.w3.org/2000/svg"
   xmlns="http://www.w3.org/2000/svg"
   xmlns:sodipodi="http://sodipodi.sourceforge.net/DTD/sodipodi-0.dtd"
   xmlns:inkscape="http://www.inkscape.org/namespaces/inkscape"
   viewBox="0 0 16 16"
   version="1.1"
   id="svg6"
   sodipodi:docname="sc_removefiltersort.svg"
   inkscape:export-filename="/home/jupiter007/Libreoffice yaru theme fullcolor/build/cmd/sc_removefiltersort.png"
   inkscape:export-xdpi="96"
   inkscape:export-ydpi="96"
   inkscape:version="0.92.5 (2060ec1f9f, 2020-04-08)">
  <metadata
     id="metadata12">
    <rdf:RDF>
      <cc:Work
         rdf:about="">
        <dc:format>image/svg+xml</dc:format>
        <dc:type
           rdf:resource="http://purl.org/dc/dcmitype/StillImage" />
      </cc:Work>
    </rdf:RDF>
  </metadata>
  <defs
     id="defs10" />
  <sodipodi:namedview
     pagecolor="#ffffff"
     bordercolor="#666666"
     borderopacity="1"
     objecttolerance="10"
     gridtolerance="10"
     guidetolerance="10"
     inkscape:pageopacity="0"
     inkscape:pageshadow="2"
     inkscape:window-width="1920"
     inkscape:window-height="1011"
     id="namedview8"
     showgrid="false"
     inkscape:zoom="14.75"
     inkscape:cx="0.54237288"
     inkscape:cy="7.7966102"
     inkscape:window-x="0"
     inkscape:window-y="32"
     inkscape:window-maximized="1"
     inkscape:current-layer="svg6" />
  <path
     sodipodi:nodetypes="ccccccccccccc"
     id="path825"
     d="m 3.0000002,2.0000309 -1.0000001,1 v 1.3125 l 4.0000001,5.65625 v 0.03125 2 l 3.9999997,2 v -4 -0.03125 L 14,4.3125309 v -1.3125 l -1,-1 z"
     style="opacity:0.6;fill:#000000;stroke:#000000;stroke-width:2;stroke-linejoin:round;stroke-miterlimit:4;stroke-dasharray:none"
     inkscape:connector-curvature="0" />
  <path
     inkscape:connector-curvature="0"
     style="fill:#ffffff"
     d="m 3.0000002,2.0000309 -1.0000001,1 v 1.3125 l 4.0000001,5.65625 v 0.03125 2 l 3.9999997,2 v -4 -0.03125 L 14,4.3125309 v -1.3125 l -1,-1 z"
     id="path2"
     sodipodi:nodetypes="ccccccccccccc" />
  <circle
     style="opacity:1;vector-effect:none;fill:#c7162b;fill-opacity:1;stroke:none;stroke-width:3.49999976;stroke-linecap:butt;stroke-linejoin:round;stroke-miterlimit:4;stroke-dasharray:none;stroke-dashoffset:0;stroke-opacity:1"
     id="path2644"
     cy="12.5"
     cx="12.5"
     r="3.5" />
  <path
     inkscape:connector-curvature="0"
     id="path1063"
     overflow="visible"
     font-weight="400"
     style="color:#000000;font-weight:400;line-height:normal;font-family:sans-serif;text-indent:0;text-align:start;text-decoration:none;text-decoration-line:none;text-decoration-style:solid;text-decoration-color:#000000;text-transform:none;white-space:normal;overflow:visible;isolation:auto;mix-blend-mode:normal;fill:#ffffff;fill-opacity:1;marker:none"
     d="m 13.914215,10.37868 -1.414213,1.414214 -1.414214,-1.414215 -0.707107,0.707107 1.414214,1.414214 -1.414213,1.414214 0.707106,0.707107 1.414214,-1.414214 1.414213,1.414214 0.707107,-0.707107 L 13.207109,12.5 14.621322,11.085787 Z" />
</svg>

<svg xmlns="http://www.w3.org/2000/svg" viewBox="0 0 16 16"><path d="M3 2L2 3v1.313l4 5.656V12l4 2V9.969l4-5.656V3l-1-1z" opacity=".6" stroke="#000" stroke-width="2" stroke-linejoin="round"/><path d="M3 2L2 3v1.313l4 5.656V12l4 2V9.969l4-5.656V3l-1-1z" fill="#fff"/><circle cy="12.5" cx="12.5" r="3.5" fill="#c7162b"/><path overflow="visible" font-weight="400" style="line-height:normal;text-indent:0;text-align:start;text-decoration-line:none;text-decoration-style:solid;text-decoration-color:#000;text-transform:none;white-space:normal;isolation:auto;mix-blend-mode:normal;marker:none" d="M13.914 10.379L12.5 11.793l-1.414-1.414-.707.707 1.414 1.414-1.414 1.414.707.707 1.414-1.414 1.414 1.414.707-.707-1.414-1.414 1.414-1.414z" color="#000" font-family="sans-serif" fill="#fff"/></svg>
